packages/paste-icons/svg/Bold.svg

<svg width="20" height="20" viewBox="0 0 20 20" fill="none" xmlns="http://www.w3.org/2000/svg">
<path d="M13.2981 9.62857C13.2562 9.58721 13.2311 9.52973 13.2282 9.46857C13.2253 9.4074 13.2448 9.34746 13.2826 9.30171C13.6984 8.80134 13.971 8.18179 14.0674 7.51792C14.1639 6.85405 14.08 6.17426 13.826 5.56069C13.572 4.94712 13.1587 4.42601 12.636 4.06033C12.1133 3.69464 11.5036 3.50003 10.8806 3.5H7.22181C6.76516 3.5 6.32721 3.69566 6.00431 4.04394C5.6814 4.39223 5.5 4.8646 5.5 5.35714V14.6429C5.5 15.1354 5.6814 15.6078 6.00431 15.9561C6.32721 16.3043 6.76516 16.5 7.22181 16.5H10.8376C11.5771 16.5011 12.2996 16.2604 12.9097 15.8096C13.5198 15.3588 13.9889 14.7191 14.255 13.9748C14.5211 13.2306 14.5718 12.4168 14.4004 11.6409C14.2289 10.865 13.8434 10.1633 13.2946 9.62857H13.2981ZM7.22181 5.58929C7.22181 5.52772 7.24448 5.46867 7.28485 5.42514C7.32521 5.3816 7.37995 5.35714 7.43703 5.35714H10.8806C11.2802 5.35714 11.6634 5.52835 11.946 5.83309C12.2285 6.13784 12.3872 6.55117 12.3872 6.98214C12.3872 7.41312 12.2285 7.82644 11.946 8.13119C11.6634 8.43594 11.2802 8.60714 10.8806 8.60714H7.43703C7.37995 8.60714 7.32521 8.58268 7.28485 8.53915C7.24448 8.49561 7.22181 8.43657 7.22181 8.375V5.58929ZM10.841 14.6429H7.43703C7.37995 14.6429 7.32521 14.6184 7.28485 14.5749C7.24448 14.5313 7.22181 14.4723 7.22181 14.4107V10.6964C7.22181 10.6349 7.24448 10.5758 7.28485 10.5323C7.32521 10.4887 7.37995 10.4643 7.43703 10.4643H10.841C11.3548 10.4643 11.8475 10.6844 12.2107 11.0762C12.574 11.468 12.7781 11.9995 12.7781 12.5536C12.7781 13.1077 12.574 13.6391 12.2107 14.0309C11.8475 14.4227 11.3548 14.6429 10.841 14.6429Z" fill="#606B85"/>
</svg>

<svg xmlns="http://www.w3.org/2000/svg" width="20" height="20" fill="none" viewBox="0 0 20 20">
  <path fill="#606B85" d="M13.298 9.629a.244.244 0 0 1-.015-.327c.415-.5.688-1.12.784-1.784a3.728 3.728 0 0 0-.241-1.957 3.421 3.421 0 0 0-1.19-1.5 3.058 3.058 0 0 0-1.755-.561H7.22a1.66 1.66 0 0 0-1.217.544c-.323.348-.504.82-.504 1.313v9.286c0 .492.181.965.504 1.313s.761.544 1.218.544h3.616c.74.001 1.462-.24 2.072-.69a3.91 3.91 0 0 0 1.345-1.835 4.238 4.238 0 0 0 .145-2.334 4.017 4.017 0 0 0-1.105-2.012h.003Zm-6.076-4.04a.24.24 0 0 1 .063-.164.208.208 0 0 1 .152-.068h3.444c.4 0 .782.171 1.065.476.283.305.441.718.441 1.15 0 .43-.159.843-.441 1.148a1.453 1.453 0 0 1-1.065.476H7.437a.208.208 0 0 1-.152-.068.242.242 0 0 1-.063-.164V5.589Zm3.619 9.054H7.437a.208.208 0 0 1-.152-.068.242.242 0 0 1-.063-.164v-3.715a.24.24 0 0 1 .063-.164.207.207 0 0 1 .152-.068h3.404c.514 0 1.007.22 1.37.612.363.392.567.923.567 1.478 0 .554-.204 1.085-.567 1.477a1.868 1.868 0 0 1-1.37.612Z"/>
</svg>
